X: 48
T: No_13_Dancing_Song_from_the_East_God_(a).krn
N: Derived from No_13_Dancing_Song_from_the_East_God_(a).krn
%%abc-version 2.0
%%abcx-abcm2ps-target-version 5.9.1 (29 Sep 2008)
%%abc-creator hum2abc beta
%%abcx-conversion-date 2019/03/15 08:35:44
%%humdrum-veritas 668992036
%%humdrum-veritas-data 550380697
%%linebreak <none>
%%barnumbers 0
L: 1/8
M: 2/4
K: G clef=bass
[K:clef=bass][M:2/4]E,E, E,A, | 
A,4 ]|:  
[M:3/4]A,/A,/A,/A,/ A,G, E, z ||  
[M:2/4]A,G, G,E, | 
D,4 ||  
[M:3/4]E,/D,/D,/D,/ D,D, D, z ||  
[M:2/4]E,E, E,G, | 
G,4 ||  
[M:3/4]G,/G,/G,/G,/ G,G, E, z ||  
[M:2/4]A,G, G,E, | 
D,4 ||  
[M:3/4]E,/D,/D,/D,/ D,B,, G,, z ||  
[M:2/4]B,,B,, B,,A,, | 
G,,4 ||  
[M:3/4]G,,/G,,/G,,/G,,/ G,,G,,G,,2 ||  
[M:2/4]D,D, E,A, | 
A,4 :|]  



